Resources/Private/Icons/solid/gauge-high.svg

<svg xmlns="http://www.w3.org/2000/svg" viewBox="0 0 512 512"><!--! Font Awesome Free 6.2.0 by @fontawesome - https://fontawesome.com License - https://fontawesome.com/license/free (Icons: CC BY 4.0, Fonts: SIL OFL 1.1, Code: MIT License) Copyright 2022 Fonticons, Inc. --><path d="M512 256c0 141.4-114.6 256-256 256S0 397.4 0 256S114.6 0 256 0S512 114.6 512 256zM288 96c0-17.7-14.3-32-32-32s-32 14.3-32 32s14.3 32 32 32s32-14.3 32-32zM256 416c35.3 0 64-28.7 64-64c0-17.4-6.9-33.1-18.1-44.6L366 161.7c5.3-12.1-.2-26.3-12.3-31.6s-26.3 .2-31.6 12.3L257.9 288c-.6 0-1.3 0-1.9 0c-35.3 0-64 28.7-64 64s28.7 64 64 64zM176 144c0-17.7-14.3-32-32-32s-32 14.3-32 32s14.3 32 32 32s32-14.3 32-32zM96 288c17.7 0 32-14.3 32-32s-14.3-32-32-32s-32 14.3-32 32s14.3 32 32 32zm352-32c0-17.7-14.3-32-32-32s-32 14.3-32 32s14.3 32 32 32s32-14.3 32-32z"/></svg>

<svg xmlns="http://www.w3.org/2000/svg" viewBox="0 0 512 512"><!--! Font Awesome Free 6.1.1 by @fontawesome - https://fontawesome.com License - https://fontawesome.com/license/free (Icons: CC BY 4.0, Fonts: SIL OFL 1.1, Code: MIT License) Copyright 2022 Fonticons, Inc. --><path d="M512 256C512 397.4 397.4 512 256 512C114.6 512 0 397.4 0 256C0 114.6 114.6 0 256 0C397.4 0 512 114.6 512 256zM256 64C238.3 64 224 78.33 224 96C224 113.7 238.3 128 256 128C273.7 128 288 113.7 288 96C288 78.33 273.7 64 256 64zM256 416C291.3 416 320 387.3 320 352C320 334.6 313.1 318.9 301.9 307.4L365.1 161.7C371.3 149.5 365.8 135.4 353.7 130C341.5 124.7 327.4 130.2 322 142.3L257.9 288C257.3 288 256.6 287.1 256 287.1C220.7 287.1 192 316.7 192 352C192 387.3 220.7 416 256 416V416zM144 112C126.3 112 112 126.3 112 144C112 161.7 126.3 176 144 176C161.7 176 176 161.7 176 144C176 126.3 161.7 112 144 112zM96 288C113.7 288 128 273.7 128 256C128 238.3 113.7 224 96 224C78.33 224 64 238.3 64 256C64 273.7 78.33 288 96 288zM416 224C398.3 224 384 238.3 384 256C384 273.7 398.3 288 416 288C433.7 288 448 273.7 448 256C448 238.3 433.7 224 416 224z"/></svg>
